X: 20581
T: MORGIANA, OR THE LAVENDER GIRL
C:
%R: jig
B: Elias Howe "The Musician's Companion" 1843 p.58 #1
S: http://imslp.org/wiki/The_Musician's_Companion_(Howe,_Elias)
Z: 2015 John Chambers <jc:trillian.mit.edu>
M: 6/8
L: 1/8
K: G
% - - - - - - - - - - - - - - - - - - - - - - - - -
[|\
D2D G2G | AGA B2z | D2D G2G | B2c BGE |\
D2D G2G | AGA Bcd | edc BcA | G2A BGE |]
[|\
d2d dcB | e2f g2z | ded dcB | e2f gdB |\
d2d dcB | e2e gfe | ded dcB | G2A BGE |]
|:\
GAG B<dz | ABA c<ez | GAG B<dz | G2A BGE |\
GAG B<dz | c<ez B<dz | e<gz B<dz | G2A BGE :|
% - - - - - - - - - - - - - - - - - - - - - - - - -

%%sep 1 1 500

